svg/system/settings_4_fill.svg

<?xml version="1.0" encoding="UTF-8"?>
<svg width="24px" height="24px" viewBox="0 0 24 24" version="1.1" xmlns="http://www.w3.org/2000/svg" xmlns:xlink="http://www.w3.org/1999/xlink">
    <title>setting_4_fill</title>
    <g id="页面-1" stroke="none" stroke-width="1" fill="none" fill-rule="evenodd">
        <g id="System" transform="translate(-864.000000, -144.000000)">
            <g id="setting_4_fill" transform="translate(864.000000, 144.000000)">
                 <path d="M24,0 L24,24 L0,24 L0,0 L24,0 Z M12.5934901,23.257841 L12.5819402,23.2595131 L12.5108777,23.2950439 L12.4918791,23.2987469 L12.4918791,23.2987469 L12.4767152,23.2950439 L12.4056548,23.2595131 C12.3958229,23.2563662 12.3870493,23.2590235 12.3821421,23.2649074 L12.3780323,23.275831 L12.360941,23.7031097 L12.3658947,23.7234994 L12.3769048,23.7357139 L12.4804777,23.8096931 L12.4953491,23.8136134 L12.4953491,23.8136134 L12.5071152,23.8096931 L12.6106902,23.7357139 L12.6232938,23.7196733 L12.6232938,23.7196733 L12.6266527,23.7031097 L12.609561,23.275831 C12.6075724,23.2657013 12.6010112,23.2592993 12.5934901,23.257841 L12.5934901,23.257841 Z M12.8583906,23.1452862 L12.8445485,23.1473072 L12.6598443,23.2396597 L12.6498822,23.2499052 L12.6498822,23.2499052 L12.6471943,23.2611114 L12.6650943,23.6906389 L12.6699349,23.7034178 L12.6699349,23.7034178 L12.678386,23.7104931 L12.8793402,23.8032389 C12.8914285,23.8068999 12.9022333,23.8029875 12.9078286,23.7952264 L12.9118235,23.7811639 L12.8776777,23.1665331 C12.8752882,23.1545897 12.8674102,23.1470016 12.8583906,23.1452862 L12.8583906,23.1452862 Z M12.1430473,23.1473072 C12.1332178,23.1423925 12.1221763,23.1452606 12.1156365,23.1525954 L12.1099173,23.1665331 L12.0757714,23.7811639 C12.0751323,23.7926639 12.0828099,23.8018602 12.0926481,23.8045676 L12.108256,23.8032389 L12.3092106,23.7104931 L12.3186497,23.7024347 L12.3186497,23.7024347 L12.3225043,23.6906389 L12.340401,23.2611114 L12.337245,23.2485176 L12.337245,23.2485176 L12.3277531,23.2396597 L12.1430473,23.1473072 Z" id="MingCute" fill-rule="nonzero"></path>
                <path d="M10.5857,2.10056 C11.3256895,1.36061789 12.5011493,1.32167357 13.2868927,1.98372704 L13.4141,2.10056 L15.3136,4.00005 L17.9999,4.00005 C19.0542909,4.00005 19.9180678,4.81592733 19.9944144,5.85078759 L19.9999,6.00005 L19.9999,8.68632 L21.8994,10.5858 C22.6393895,11.3257895 22.6783363,12.5012493 22.0162404,13.2870778 L21.8994,13.4143 L19.9999,15.3138 L19.9999,18.0001 C19.9999,19.0543955 19.18405,19.9182591 18.1491661,19.9946139 L17.9999,20.0001 L15.3136,20.0001 L13.4141,21.8995 C12.6742053,22.6394895 11.4987504,22.6784363 10.7129222,22.0163404 L10.5857,21.8995 L8.68622,20.0001 L5.99991,20.0001 C4.94554773,20.0001 4.08174483,19.1841589 4.00539573,18.1493537 L3.99991,18.0001 L3.99991,15.3137 L2.10043,13.4143 C1.36049737,12.6743105 1.32155355,11.4988507 1.98359853,10.7130222 L2.10043,10.5858 L3.99991,8.68636 L3.99991,6.00005 C3.99991,4.94568773 4.81578733,4.08188483 5.85064759,4.00553573 L5.99991,4.00005 L8.68622,4.00005 L10.5857,2.10056 Z M11.9999,9 C10.3431,9 8.99994,10.3431 8.99994,12 C8.99994,13.6569 10.3431,15 11.9999,15 C13.6568,15 14.9999,13.6569 14.9999,12 C14.9999,10.3431 13.6568,9 11.9999,9 Z" id="形状" fill="#09244B"></path>
            </g>
        </g>
    </g>
</svg>

<svg xmlns="http://www.w3.org/2000/svg" width="24" height="24"><g fill="none" fill-rule="evenodd"><path d="M24 0v24H0V0h24ZM12.593 23.258l-.011.002-.071.035-.02.004-.014-.004-.071-.035c-.01-.004-.019-.001-.024.005l-.004.01-.017.428.005.02.01.013.104.074.015.004.012-.004.104-.074.012-.016.004-.017-.017-.427c-.002-.01-.009-.017-.017-.018Zm.265-.113-.013.002-.185.093-.01.01-.003.011.018.43.005.012.008.007.201.093c.012.004.023 0 .029-.008l.004-.014-.034-.614c-.003-.012-.01-.02-.02-.022Zm-.715.002a.023.023 0 0 0-.027.006l-.006.014-.034.614c0 .012.007.02.017.024l.015-.002.201-.093.01-.008.004-.011.017-.43-.003-.012-.01-.01-.184-.092Z"/><path fill="#09244B" d="M10.586 2.1a2 2 0 0 1 2.7-.116l.128.117L15.314 4H18a2 2 0 0 1 1.994 1.85L20 6v2.686l1.9 1.9a2 2 0 0 1 .116 2.701l-.117.127-1.9 1.9V18a2 2 0 0 1-1.85 1.995L18 20h-2.685l-1.9 1.9a2 2 0 0 1-2.701.116l-.127-.116-1.9-1.9H6a2 2 0 0 1-1.995-1.85L4 18v-2.686l-1.9-1.9a2 2 0 0 1-.116-2.701l.116-.127 1.9-1.9V6a2 2 0 0 1 1.85-1.994L6 4h2.686l1.9-1.9ZM12 9a3 3 0 1 0 0 6 3 3 0 0 0 0-6Z"/></g></svg>
